public/logoWhite.svg

<svg data-logo="logo" xmlns="http://www.w3.org/2000/svg" viewBox="0 0 183 43">
        <g style="opacity: 1;" id="logogram" transform="translate(0, 1) rotate(0)"><path d="M20.5272 10.3C20.5272 15.8228 16.0501 20.3 10.5272 20.3H0.527222V10.3C0.527222 4.77713 5.00437 0.299988 10.5272 0.299988C16.0501 0.299988 20.5272 4.77713 20.5272 10.3Z" fill="#9417CF"></path><path d="M20.5272 30.3C20.5272 24.7771 25.0044 20.3 30.5272 20.3H40.5272V30.3C40.5272 35.8228 36.0501 40.3 30.5272 40.3C25.0044 40.3 20.5272 35.8228 20.5272 30.3Z" fill="#CF1794"></path><path d="M0.527222 30.3C0.527222 35.8228 5.00437 40.3 10.5272 40.3H20.5272V30.3C20.5272 24.7771 16.0501 20.3 10.5272 20.3C5.00437 20.3 0.527222 24.7771 0.527222 30.3Z" fill="#4817CF"></path><path d="M40.5272 10.3C40.5272 4.77713 36.0501 0.299988 30.5272 0.299988H20.5272V10.3C20.5272 15.8228 25.0044 20.3 30.5272 20.3C36.0501 20.3 40.5272 15.8228 40.5272 10.3Z" fill="#17CF79"></path></g>
        <g style="opacity: 1;" id="logotype" transform="translate(47, 2.5)"><path fill="#000000" d="M17.81 31.35L17.81 31.35Q13.06 31.35 10.23 29.26Q7.40 27.18 7.14 23.48L7.14 23.48L12.21 23.48Q12.48 25.40 13.95 26.38Q15.42 27.35 18.02 27.35L18.02 27.35Q20.32 27.35 21.49 26.61Q22.65 25.87 22.65 24.41L22.65 24.41Q22.65 23.27 21.91 22.60Q21.17 21.93 19.50 21.58L19.50 21.58L14.63 20.59Q11.34 19.89 9.70 18.27Q8.07 16.65 8.07 14.05L8.07 14.05Q8.07 10.76 10.56 8.89Q13.06 7.02 17.35 7.02L17.35 7.02Q21.69 7.02 24.35 8.98Q27 10.93 27.32 14.43L27.32 14.43L22.25 14.43Q21.40 10.88 17.08 10.88L17.08 10.88Q15.13 10.88 14.02 11.57Q12.91 12.27 12.91 13.59L12.91 13.59Q12.91 15.60 15.80 16.18L15.80 16.18L20.88 17.23Q24.32 17.93 25.91 19.58Q27.50 21.23 27.50 24.03L27.50 24.03Q27.50 27.50 24.97 29.43Q22.45 31.35 17.81 31.35ZM35.60 38L30.76 38L30.76 18.28L28.37 18.28L28.37 13.50L33.27 13.50L33.27 16.36L34.50 16.36Q35.43 14.84 36.99 14.00Q38.55 13.15 40.77 13.15L40.77 13.15Q43.48 13.15 45.35 14.29Q47.21 15.42 48.17 17.47Q49.14 19.51 49.14 22.25L49.14 22.25Q49.14 24.99 48.20 27.05Q47.27 29.10 45.49 30.23Q43.71 31.35 41.17 31.35L41.17 31.35Q39.25 31.35 37.88 30.64Q36.51 29.92 35.72 28.61L35.72 28.61L35.60 28.61L35.60 38ZM39.86 27.15L39.86 27.15Q42.08 27.15 43.19 25.84Q44.30 24.52 44.30 22.25L44.30 22.25Q44.30 19.98 43.19 18.66Q42.08 17.35 39.86 17.35L39.86 17.35Q37.91 17.35 36.76 18.44Q35.60 19.54 35.60 21.46L35.60 21.46L35.60 23.04Q35.60 24.96 36.76 26.06Q37.91 27.15 39.86 27.15ZM58.38 31.32L58.38 31.32Q54.74 31.32 52.78 29.40Q50.83 27.47 50.83 24.15L50.83 24.15L50.83 13.50L55.67 13.50L55.67 23.21Q55.67 25.11 56.65 26.06Q57.63 27.00 59.58 27.00L59.58 27.00Q61.59 27.00 62.69 25.98Q63.78 24.96 63.78 23.07L63.78 23.07L63.78 13.50L68.62 13.50L68.62 26.22L71.01 26.22L71.01 31L66.11 31L66.11 28.14L64.89 28.14Q63.84 29.69 62.34 30.50Q60.83 31.32 58.38 31.32ZM83.53 31L78.22 31Q76.35 31 75.31 30.05Q74.28 29.10 74.28 27.15L74.28 27.15L74.28 17.29L71.28 17.29L71.28 13.50L74.34 13.50L74.34 8.25L79.06 8.25L79.06 13.50L83.12 13.50L83.12 17.29L79.12 17.29L79.12 27.21L83.53 27.21L83.53 31ZM92.51 31.32L92.51 31.32Q88.86 31.32 86.91 29.40Q84.95 27.47 84.95 24.15L84.95 24.15L84.95 13.50L89.80 13.50L89.80 23.21Q89.80 25.11 90.77 26.06Q91.75 27.00 93.70 27.00L93.70 27.00Q95.72 27.00 96.81 25.98Q97.90 24.96 97.90 23.07L97.90 23.07L97.90 13.50L102.75 13.50L102.75 26.22L105.14 26.22L105.14 31L100.24 31L100.24 28.14L99.01 28.14Q97.96 29.69 96.46 30.50Q94.96 31.32 92.51 31.32ZM112.49 31L107.73 31L107.73 18.28L105.34 18.28L105.34 13.50L110.24 13.50L110.24 16.94L111.47 16.94Q112.17 15.10 113.68 14.20Q115.20 13.30 117.10 13.30L117.10 13.30L118.58 13.30L118.58 17.50L116.89 17.50Q114.62 17.50 113.55 18.78Q112.49 20.06 112.49 22.16L112.49 22.16L112.49 31ZM134.51 31L119.11 31L119.11 28.08L128.21 17.35L119.63 17.35L119.63 13.50L134.33 13.50L134.33 16.42L125.23 27.15L134.51 27.15L134.51 31Z"></path></g> 
      </svg>

<svg xmlns="http://www.w3.org/2000/svg" data-logo="logo" viewBox="0 0 183 43"><g style="opacity:1"><path fill="#9417CF" d="M20.5 11.3a10 10 0 0 1-10 10H.5v-10a10 10 0 1 1 20 0Z"/><path fill="#CF1794" d="M20.5 31.3a10 10 0 0 1 10-10h10v10a10 10 0 1 1-20 0Z"/><path fill="#4817CF" d="M.5 31.3a10 10 0 0 0 10 10h10v-10a10 10 0 1 0-20 0Z"/><path fill="#17CF79" d="M40.5 11.3a10 10 0 0 0-10-10h-10v10a10 10 0 0 0 20 0Z"/></g><path d="M17.8 31.4q-4.7 0-7.6-2.1-2.8-2.1-3-5.8h5q.3 1.9 1.8 2.9 1.4 1 4 1 2.3 0 3.5-.8 1.1-.7 1.1-2.2 0-1.1-.7-1.8t-2.4-1l-4.9-1q-3.3-.7-4.9-2.3-1.6-1.7-1.6-4.3 0-3.2 2.5-5.1Q13 7 17.4 7t7 2q2.6 2 3 5.4h-5.1Q21.4 11 17 11q-2 0-3 .7-1.2.7-1.2 2 0 2 2.9 2.6l5 1q3.5.7 5.1 2.4 1.6 1.6 1.6 4.4 0 3.5-2.5 5.4-2.6 2-7.2 2ZM35.6 38h-4.8V18.3h-2.4v-4.8h4.9v2.9h1.2q1-1.6 2.5-2.4 1.5-.8 3.8-.8 2.7 0 4.6 1 1.8 1.2 2.8 3.3 1 2 1 4.8 0 2.7-1 4.8-1 2-2.7 3.1-1.8 1.2-4.3 1.2-2 0-3.3-.8-1.4-.7-2.2-2h-.1V38Zm4.3-10.9q2.2 0 3.3-1.3 1.1-1.3 1.1-3.6 0-2.2-1.1-3.5-1.1-1.3-3.3-1.3-2 0-3.1 1-1.2 1.1-1.2 3V23q0 2 1.2 3 1.1 1.1 3 1.1Zm18.5 4.2q-3.7 0-5.6-1.9-2-2-2-5.3V13.5h4.9v9.7q0 2 1 2.9 1 .9 2.9.9 2 0 3-1 1.2-1 1.2-3v-9.5h4.8v12.7H71V31h-4.9v-2.9H65q-1 1.6-2.6 2.4-1.5.8-4 .8Zm25.1-.3h-5.3q-1.9 0-2.9-1-1-.9-1-2.9v-9.8h-3v-3.8h3V8.2h4.8v5.3h4v3.8h-4v10h4.4V31Zm9 .3q-3.6 0-5.6-1.9-2-2-2-5.3V13.5h4.9v9.7q0 2 1 2.9 1 .9 2.9.9 2 0 3.1-1t1.1-3v-9.5h4.8v12.7h2.4V31h-4.9v-2.9H99q-1 1.6-2.5 2.4-1.5.8-4 .8Zm20-.3h-4.8V18.3h-2.4v-4.8h5v3.4h1.2q.7-1.8 2.2-2.7 1.5-.9 3.4-.9h1.5v4.2h-1.7q-2.3 0-3.4 1.3-1 1.3-1 3.4V31Zm22 0h-15.4v-3l9.1-10.6h-8.6v-3.9h14.7v3l-9 10.6h9.2V31Z" style="opacity:1" transform="translate(47 2.5)"/></svg>
